icons/pulse_oximeter.svg

<svg width="48" height="48" viewBox="0 0 48 48" fill="none" xmlns="http://www.w3.org/2000/svg">
<rect width="48" height="48" fill="white"/>
<path fill-rule="evenodd" clip-rule="evenodd" d="M6 14V15.5737L6.22907 15.8736C6.76155 16.5709 7.05 17.4239 7.05 18.3013V19.6987C7.05 20.576 6.76155 21.429 6.22907 22.1263L6 22.4263V24H17.65C20.6978 24 23 21.6706 23 19C23 16.3294 20.6978 14 17.65 14H6ZM5.575 12C4.70515 12 4 12.6716 4 13.5V15.5737C4 16.0123 4.14423 16.4389 4.41046 16.7875L4.63954 17.0875C4.90577 17.4361 5.05 17.8626 5.05 18.3013V19.6987C5.05 20.1373 4.90577 20.5639 4.63954 20.9125L4.41046 21.2125C4.14423 21.5611 4 21.9876 4 22.4263V24.5C4 25.3284 4.70515 26 5.575 26H17.65C21.7093 26 25 22.866 25 19C25 15.134 21.7093 12 17.65 12H5.575Z" fill="black"/>
<path d="M22 19C22 20.1046 21.1046 21 20 21C18.8954 21 18 20.1046 18 19C18 17.8954 18.8954 17 20 17C21.1046 17 22 17.8954 22 19Z" fill="black"/>
<path fill-rule="evenodd" clip-rule="evenodd" d="M15 17H10V21H15V17ZM8 15V23H17V15H8Z" fill="black"/>
<path fill-rule="evenodd" clip-rule="evenodd" d="M23 21.0376V23.0376H27.0597C26.7641 23.5805 26.5962 24.203 26.5962 24.8647C26.5962 26.2219 27.3027 27.4142 28.3681 28.0937C27.8267 28.7539 27.5018 29.5984 27.5018 30.5188C27.5018 32.6324 29.2152 34.3459 31.3288 34.3458H32.004C31.7084 34.8888 31.5405 35.5112 31.5405 36.1729C31.5405 38.2865 33.2539 40 35.3676 40H43.9848V38H35.3676C34.3585 38 33.5405 37.182 33.5405 36.1729C33.5405 35.1639 34.3585 34.3459 35.3676 34.3458H39.4129V32.3458H31.3288C30.3198 32.3459 29.5018 31.5278 29.5018 30.5188C29.5018 29.5097 30.3198 28.6917 31.3288 28.6917H36.6815V26.6917H30.4233C29.4142 26.6917 28.5962 25.8737 28.5962 24.8647C28.5962 23.8556 29.4142 23.0376 30.4233 23.0376H36.6815V21.0376H23ZM23.5 17.3835H39.3118C41.4964 17.3835 42.0989 14.3814 40.0835 13.5384L35.328 11.5493C34.2457 11.0966 33.9829 9.6826 34.8301 8.87122C35.2843 8.43622 35.9474 8.30168 36.5345 8.5251L44 11.2499V9.22573L37.2458 6.65583C35.9363 6.1576 34.4582 6.4582 33.4468 7.42677C31.5588 9.2348 32.1446 12.3857 34.5562 13.3944L39.3118 15.3835H23.5V17.3835Z" fill="black"/>
</svg>

<svg
  xmlns="http://www.w3.org/2000/svg"
  width="24"
  height="24"
  viewBox="0 0 24 24"
  fill="none"
  stroke="currentColor"
  stroke-width="2"
  stroke-linecap="round"
  stroke-linejoin="round"
>
  <rect width="48" height="48" />
  <path
    fill-rule="evenodd"
    d="M6 14v1.574l.23.3a4 4 0 0 1 .82 2.427V19.7a4 4 0 0 1-.82 2.427l-.23.3V24h11.65c3.048 0 5.35-2.33 5.35-5s-2.302-5-5.35-5zm-.425-2C4.705 12 4 12.672 4 13.5v2.074a2 2 0 0 0 .41 1.214l.23.3a2 2 0 0 1 .41 1.213V19.7a2 2 0 0 1-.41 1.213l-.23.3A2 2 0 0 0 4 22.426V24.5c0 .828.705 1.5 1.575 1.5H17.65c4.06 0 7.35-3.134 7.35-7s-3.29-7-7.35-7z"
    clip-rule="evenodd"
  />
  <path d="M22 19a2 2 0 1 1-4 0 2 2 0 0 1 4 0" />
  <path
    fill-rule="evenodd"
    d="M15 17h-5v4h5zm-7-2v8h9v-8z"
    clip-rule="evenodd"
  />
  <path
    fill-rule="evenodd"
    d="M23 21.038v2h4.06a3.824 3.824 0 0 0 1.308 5.056 3.827 3.827 0 0 0 2.96 6.252h.676A3.827 3.827 0 0 0 35.368 40h8.617v-2h-8.617a1.827 1.827 0 1 1 0-3.654h4.045v-2h-8.084a1.827 1.827 0 1 1 0-3.654h5.352v-2h-6.258a1.827 1.827 0 1 1 0-3.654h6.259v-2zm.5-3.654h15.812c2.184 0 2.787-3.003.772-3.846l-4.756-1.989a1.628 1.628 0 0 1 1.206-3.024L44 11.25V9.226l-6.754-2.57a3.63 3.63 0 0 0-3.8.77c-1.887 1.809-1.301 4.96 1.11 5.968l4.756 1.99H23.5z"
    clip-rule="evenodd"
  />
</svg>
